X:1
T:Master of the Dance
T:A Tribute to Ted Sannella
C:David A Kaynor August 1995
M:4/4
L:1/8
K:D
|: "D"D2DE F3E | DEFD "A"EA, (3.A,.A,.A, | "D"D2DE F2ED | "A"CEAB [1,3 AGFE :|[2,4 A4 :|
|: "A"Acec "D"Adfd | "A"ecAG "D"FADF | "Em"G2BG E3D | "A"CDEC [1,3 A,4 :|[2,4 "D"D4 :|
